X:128
M:3/4
L:1/8
K:F
d4d2 | c4d2 | A4G2 | F4A2 | B2c4 | A4F2 | D6 | D4c2 | 
d4d2 | c4d2 | A4G2 | F4A2 | B2c4 | A4F2 | D6 | D4DF | 

